X:145
T:Hon’ble Mrs. Scott’s Reel. RH.145
R:Reel
C:”by A.Mackintosh”
S:Rev.R.Harrison’s MS,c1815,Cumbria
O:England
A:Temple Sowerby,Cumbria
Z:vmp.Simon Wilson. Review PJH, 2008.
M:C|
L:1/8
Q:1/2=80
K:D
f|d2fd BdAF|Eeef agfe|\
dDcD BDAD|Bcde fdd:|!
f|defg affa|bggb aff2{ef}|\
defg abaf|gefd ceef|!
defg afaf|bgbg afaf|\
gbaf gefd|cA (a/g/f/e/) fdd|]

